;FLAVOR:Marlin
;TIME:1226
;Filament used: 1.26811m
;Layer height: 0.2
;MINX:64.06
;MINY:22.004
;MINZ:0.25
;MAXX:92.636
;MAXY:50.58
;MAXZ:19.85
;Generated with Cura_SteamEngine 4.8.0
M140 S65
M105
M190 S65
M104 S210
M105
M109 S210
M82 ;absolute extrusion mode
G28 ;Home
G1 Z15.0 F6000 ;Move the platform down 15mm
;Prime the extruder
G92 E0
G1 F200 E3
G92 E0
G92 E0
G92 E0
G1 F2700 E-4
;LAYER_COUNT:99
;LAYER:0
M107
M204 S1000
M205 X30 Y30
G0 F2100 X64.448 Y24.539 Z0.25
M205 X10 Y10
;TYPE:SKIRT
G1 F2700 E0
G1 F1200 X64.724 Y24.023 E0.03132
G1 X65.068 Y23.55 E0.06263
G1 X65.473 Y23.127 E0.09398
G1 X65.932 Y22.764 E0.1253
G1 X66.437 Y22.467 E0.15666
G1 X66.977 Y22.241 E0.188
G1 X67.543 Y22.091 E0.21934
G1 X68.237 Y22.015 E0.25671
G1 X68.678 Y22.004 E0.28032
G1 X87.702 Y22.004 E1.29864
G1 X88.4 Y22.014 E1.33601
G1 X88.984 Y22.063 E1.36738
G1 X89.555 Y22.19 E1.39869
G1 X90.104 Y22.394 E1.43004
G1 X90.62 Y22.671 E1.46139
G1 X91.093 Y23.015 E1.49269
G1 X91.515 Y23.421 E1.52404
G1 X91.878 Y23.88 E1.55536
G1 X92.175 Y24.385 E1.58672
G1 X92.4 Y24.925 E1.61804
G1 X92.55 Y25.491 E1.64938
G1 X92.625 Y26.181 E1.68653
G1 X92.636 Y26.622 E1.71014
G1 X92.636 Y45.609 E2.72648
G1 X92.627 Y46.336 E2.7654
G1 X92.579 Y46.92 E2.79676
G1 X92.453 Y47.491 E2.82806
G1 X92.25 Y48.04 E2.8594
G1 X91.975 Y48.557 E2.89074
G1 X91.631 Y49.03 E2.92205
G1 X91.226 Y49.453 E2.9534
G1 X90.768 Y49.817 E2.98471
G1 X90.264 Y50.115 E3.01605
G1 X89.724 Y50.341 E3.04739
G1 X89.158 Y50.492 E3.07874
G1 X88.459 Y50.569 E3.11639
G1 X88.018 Y50.58 E3.14
G1 X69 Y50.58 E4.15799
G1 X68.302 Y50.571 E4.19536
G1 X67.718 Y50.523 E4.22673
G1 X67.147 Y50.397 E4.25803
G1 X66.598 Y50.194 E4.28936
G1 X66.082 Y49.917 E4.32071
G1 X65.608 Y49.574 E4.35202
G1 X65.185 Y49.169 E4.38337
G1 X64.822 Y48.71 E4.4147
G1 X64.524 Y48.206 E4.44604
G1 X64.298 Y47.666 E4.47737
G1 X64.148 Y47.1 E4.50871
G1 X64.071 Y46.399 E4.54646
G1 X64.06 Y45.95 E4.5705
G1 X64.06 Y26.908 E5.58979
G1 X64.069 Y26.243 E5.62538
G1 X64.117 Y25.66 E5.6567
G1 X64.244 Y25.088 E5.68806
G1 X64.275 Y25.005 E5.6928
G0 F960 X64.448 Y24.539
M205 X30 Y30
G0 F2100 X64.96 Y24.658
M205 X10 Y10
G1 F1200 X65.235 Y24.183 E5.72218
G1 X65.575 Y23.752 E5.75157
G1 X65.975 Y23.375 E5.78099
G1 X66.424 Y23.06 E5.81035
G1 X66.915 Y22.814 E5.83975
G1 X67.437 Y22.642 E5.86916
G1 X68.251 Y22.529 E5.91315
G1 X68.678 Y22.519 E5.93602
G1 X87.695 Y22.519 E6.95396
G1 X88.393 Y22.529 E6.99133
G1 X88.94 Y22.577 E7.02072
G1 X89.474 Y22.704 E7.0501
G1 X89.984 Y22.907 E7.07948
G1 X90.46 Y23.181 E7.10888
G1 X90.89 Y23.522 E7.13826
G1 X91.267 Y23.922 E7.16768
G1 X91.581 Y24.372 E7.19705
G1 X91.827 Y24.863 E7.22645
G1 X91.999 Y25.384 E7.25582
G1 X92.111 Y26.196 E7.29969
G1 X92.121 Y26.622 E7.3225
G1 X92.121 Y45.603 E8.33852
G1 X92.112 Y46.33 E8.37744
G1 X92.065 Y46.877 E8.40682
G1 X91.939 Y47.411 E8.43619
G1 X91.738 Y47.922 E8.46559
G1 X91.464 Y48.398 E8.49498
G1 X91.124 Y48.829 E8.52437
G1 X90.725 Y49.206 E8.55375
G1 X90.275 Y49.521 E8.58316
G1 X89.785 Y49.768 E8.61253
G1 X89.264 Y49.941 E8.64191
G1 X88.723 Y50.036 E8.67132
G1 X88.124 Y50.064 E8.70341
G1 X69.006 Y50.065 E9.72676
G1 X68.308 Y50.056 E9.76413
G1 X67.761 Y50.009 E9.79352
G1 X67.227 Y49.883 E9.82288
G1 X66.716 Y49.681 E9.8523
G1 X66.241 Y49.407 E9.88165
G1 X65.81 Y49.066 E9.91107
G1 X65.433 Y48.667 E9.94045
G1 X65.118 Y48.218 E9.96981
G1 X64.871 Y47.727 E9.99923
G1 X64.699 Y47.206 E10.0286
G1 X64.603 Y46.665 E10.05801
G1 X64.576 Y46.052 E10.09085
G1 X64.575 Y26.915 E11.11522
G1 X64.584 Y26.25 E11.15082
G1 X64.632 Y25.703 E11.18021
G1 X64.758 Y25.169 E11.20958
G1 X64.778 Y25.12 E11.21241
G0 F960 X64.96 Y24.658
M205 X30 Y30
G0 F2100 X65.473 Y24.786
M205 X10 Y10
G1 F1200 X65.745 Y24.354 E11.23974
G1 X66.081 Y23.97 E11.26705
G1 X66.472 Y23.643 E11.29434
G1 X66.91 Y23.382 E11.32163
G1 X67.384 Y23.192 E11.34896
G1 X67.881 Y23.078 E11.37626
G1 X68.587 Y23.035 E11.41412
G1 X87.688 Y23.034 E12.43656
G1 X88.386 Y23.044 E12.47392
G1 X88.894 Y23.092 E12.50124
G1 X89.388 Y23.217 E12.52851
G1 X89.857 Y23.419 E12.55585
G1 X90.288 Y23.691 E12.58313
G1 X90.672 Y24.028 E12.61048
G1 X90.998 Y24.42 E12.63777
G1 X91.259 Y24.858 E12.66506
G1 X91.449 Y25.331 E12.69234
G1 X91.562 Y25.829 E12.71968
G1 X91.605 Y26.53 E12.75727
G1 X91.606 Y45.596 E13.77784
G1 X91.597 Y46.323 E13.81676
G1 X91.551 Y46.831 E13.84406
G1 X91.426 Y47.326 E13.87139
G1 X91.225 Y47.795 E13.8987
G1 X90.954 Y48.227 E13.926
G1 X90.618 Y48.611 E13.95331
G1 X90.227 Y48.938 E13.98059
G1 X89.789 Y49.201 E14.00794
G1 X89.316 Y49.391 E14.03523
G1 X88.819 Y49.506 E14.06253
G1 X88.109 Y49.549 E14.10061
G1 X69.013 Y49.55 E15.12278
G1 X68.315 Y49.541 E15.16014
G1 X67.807 Y49.494 E15.18745
G1 X67.312 Y49.369 E15.21478
G1 X66.844 Y49.168 E15.24205
G1 X66.412 Y48.897 E15.26934
G1 X66.028 Y48.561 E15.29666
G1 X65.701 Y48.169 E15.32398
G1 X65.439 Y47.731 E15.3513
G1 X65.248 Y47.258 E15.37861
G1 X65.134 Y46.761 E15.4059
G1 X65.091 Y46.038 E15.44467
G1 X65.09 Y26.922 E16.46791
G1 X65.099 Y26.257 E16.50351
G1 X65.146 Y25.749 E16.53082
G1 X65.272 Y25.254 E16.55816
G1 X65.277 Y25.242 E16.55886
G0 F960 X65.473 Y24.786
M205 X30 Y30
G1 F2700 E12.55886
;MESH:2020.stl
G0 F2100 X67.683 Y27.077
G0 X69.133 Y27.077
G0 X87.062 Y45.006
M205 X10 Y10
;TYPE:WALL-INNER
G1 F2700 E16.55886
G1 F1200 X69.634 Y45.006 E17.47308
G1 X69.634 Y27.578 E18.38731
G1 X87.062 Y27.578 E19.30154
G1 X87.062 Y44.509 E20.1897
G0 F960 X87.062 Y45.006
M205 X30 Y30
G0 F2100 X87.577 Y45.521
M205 X10 Y10
G1 F1200 X69.119 Y45.521 E21.15796
G1 X69.119 Y27.063 E22.12622
G1 X87.577 Y27.063 E23.09448
G1 X87.577 Y45.024 E24.03667
G0 F960 X87.577 Y45.521
M205 X30 Y30
G0 F2100 X88.091 Y46.035
M205 X10 Y10
;TYPE:WALL-OUTER
G1 F1200 X68.605 Y46.035 E25.05885
G1 X68.605 Y26.549 E26.08104
G1 X88.091 Y26.549 E27.10323
G1 X88.091 Y45.538 E28.09934
G0 F960 X88.091 Y46.035
M205 X30 Y30
G0 F2100 X87.841 Y46.035
G0 X87.507 Y45.451
G0 X86.558 Y44.502
M205 X10 Y10
;TYPE:SKIN
G1 F1200 X70.138 Y44.502 E28.96069
G1 X70.138 Y28.082 E29.82204
G1 X86.558 Y28.082 E30.6834
G1 X86.558 Y44.005 E31.51868
G0 F960 X86.558 Y44.502
M205 X30 Y30
G0 F2100 X86.325 Y28.788
M205 X10 Y10
G1 F1200 X85.851 Y28.313 E31.55388
M205 X30 Y30
G0 F2100 X85.122 Y28.313
M205 X10 Y10
G1 F1200 X86.325 Y29.516 E31.64312
M205 X30 Y30
G0 F2100 X86.325 Y30.245
M205 X10 Y10
G1 F1200 X84.394 Y28.313 E31.78641
M205 X30 Y30
G0 F2100 X83.666 Y28.313
M205 X10 Y10
G1 F1200 X86.325 Y30.973 E31.98371
M205 X30 Y30
G0 F2100 X86.325 Y31.701
M205 X10 Y10
G1 F1200 X82.937 Y28.313 E32.23505
M205 X30 Y30
G0 F2100 X82.209 Y28.313
M205 X10 Y10
G1 F1200 X86.325 Y32.43 E32.54044
M205 X30 Y30
G0 F2100 X86.325 Y33.158
M205 X10 Y10
G1 F1200 X81.481 Y28.313 E32.89984
M205 X30 Y30
G0 F2100 X80.753 Y28.313
M205 X10 Y10
G1 F1200 X86.325 Y33.886 E33.31324
M205 X30 Y30
G0 F2100 X86.325 Y34.614
M205 X10 Y10
G1 F1200 X80.024 Y28.313 E33.78068
M205 X30 Y30
G0 F2100 X79.296 Y28.313
M205 X10 Y10
G1 F1200 X86.325 Y35.343 E34.30217
M205 X30 Y30
G0 F2100 X86.325 Y36.071
M205 X10 Y10
G1 F1200 X78.568 Y28.313 E34.87767
M205 X30 Y30
G0 F2100 X77.839 Y28.313
M205 X10 Y10
G1 F1200 X86.325 Y36.799 E35.50722
M205 X30 Y30
G0 F2100 X86.325 Y37.528
M205 X10 Y10
G1 F1200 X77.111 Y28.313 E36.1908
M205 X30 Y30
G0 F2100 X76.383 Y28.313
M205 X10 Y10
G1 F1200 X86.325 Y38.256 E36.9284
M205 X30 Y30
G0 F2100 X86.325 Y38.984
M205 X10 Y10
G1 F1200 X75.654 Y28.313 E37.72004
M205 X30 Y30
G0 F2100 X74.926 Y28.313
M205 X10 Y10
G1 F1200 X86.325 Y39.713 E38.56572
M205 X30 Y30
G0 F2100 X86.325 Y40.441
M205 X10 Y10
G1 F1200 X74.198 Y28.313 E39.46541
M205 X30 Y30
G0 F2100 X73.469 Y28.313
M205 X10 Y10
G1 F1200 X86.325 Y41.169 E40.41915
M205 X30 Y30
G0 F2100 X86.325 Y41.898
M205 X10 Y10
G1 F1200 X72.741 Y28.313 E41.42693
M205 X30 Y30
G0 F2100 X72.013 Y28.313
M205 X10 Y10
G1 F1200 X86.325 Y42.626 E42.48872
M205 X30 Y30
G0 F2100 X86.325 Y43.354
M205 X10 Y10
G1 F1200 X71.284 Y28.313 E43.60455
M205 X30 Y30
G0 F2100 X70.556 Y28.313
M205 X10 Y10
G1 F1200 X86.325 Y44.083 E44.77443
M205 X30 Y30
G0 F2100 X85.784 Y44.269
M205 X10 Y10
G1 F1200 X70.369 Y28.854 E45.91801
M205 X30 Y30
G0 F2100 X70.369 Y29.583
M205 X10 Y10
G1 F1200 X85.055 Y44.269 E47.0075
M205 X30 Y30
G0 F2100 X84.327 Y44.269
M205 X10 Y10
G1 F1200 X70.369 Y30.311 E48.04299
M205 X30 Y30
G0 F2100 X70.369 Y31.039
M205 X10 Y10
G1 F1200 X83.599 Y44.269 E49.02447
M205 X30 Y30
G0 F2100 X82.87 Y44.269
M205 X10 Y10
G1 F1200 X70.369 Y31.768 E49.95187
M205 X30 Y30
G0 F2100 X70.369 Y32.496
M205 X10 Y10
G1 F1200 X82.142 Y44.269 E50.82527
M205 X30 Y30
G0 F2100 X81.414 Y44.269
M205 X10 Y10
G1 F1200 X70.369 Y33.224 E51.64465
M205 X30 Y30
G0 F2100 X70.369 Y33.953
M205 X10 Y10
G1 F1200 X80.685 Y44.269 E52.40995
M205 X30 Y30
G0 F2100 X79.957 Y44.269
M205 X10 Y10
G1 F1200 X70.369 Y34.681 E53.12125
M205 X30 Y30
G0 F2100 X70.369 Y35.409
M205 X10 Y10
G1 F1200 X79.229 Y44.269 E53.77854
M205 X30 Y30
G0 F2100 X78.5 Y44.269
M205 X10 Y10
G1 F1200 X70.369 Y36.138 E54.38175
M205 X30 Y30
G0 F2100 X70.369 Y36.866
M205 X10 Y10
G1 F1200 X77.772 Y44.269 E54.93095
M205 X30 Y30
G0 F2100 X77.044 Y44.269
M205 X10 Y10
G1 F1200 X70.369 Y37.594 E55.42614
M205 X30 Y30
G0 F2100 X70.369 Y38.323
M205 X10 Y10
G1 F1200 X76.315 Y44.269 E55.86725
M205 X30 Y30
G0 F2100 X75.587 Y44.269
M205 X10 Y10
G1 F1200 X70.369 Y39.051 E56.25435
M205 X30 Y30
G0 F2100 X70.369 Y39.779
M205 X10 Y10
G1 F1200 X74.859 Y44.269 E56.58745
M205 X30 Y30
G0 F2100 X74.13 Y44.269
M205 X10 Y10
G1 F1200 X70.369 Y40.508 E56.86646
M205 X30 Y30
G0 F2100 X70.369 Y41.236
M205 X10 Y10
G1 F1200 X73.402 Y44.269 E57.09147
M205 X30 Y30
G0 F2100 X72.674 Y44.269
M205 X10 Y10
G1 F1200 X70.369 Y41.964 E57.26246
M205 X30 Y30
G0 F2100 X70.369 Y42.692
M205 X10 Y10
G1 F1200 X71.945 Y44.269 E57.37942
M205 X30 Y30
G0 F2100 X71.217 Y44.269
M205 X10 Y10
G1 F1200 X70.369 Y43.421 E57.44233
M205 X30 Y30
G0 F2100 X70.369 Y44.149
M205 X10 Y10
G1 F1200 X70.489 Y44.269 E57.45123
M205 X30 Y30
;MESH:NONMESH
G0 F600 X70.489 Y44.269 Z0.45
G0 F2100 X87.098 Y45.042
;TIME_ELAPSED:62.366193
;LAYER:1
M106 S127.5
M205 X10 Y10
;TYPE:WALL-INNER
;MESH:2020.stl
G1 F1800 X69.598 Y45.042 E58.16425
G1 X69.598 Y27.542 E58.87726
G1 X87.098 Y27.542 E59.59027
G1 X87.098 Y44.402 E60.27721
G0 F1440 X87.098 Y45.042
M204 S1500
M205 X30 Y30
G0 F3150 X87.598 Y45.542
M204 S1000
M205 X10 Y10
G1 F1800 X69.098 Y45.542 E61.03097
G1 X69.098 Y27.042 E61.78473
G1 X87.598 Y27.042 E62.53849
G1 X87.598 Y44.902 E63.26617
G0 F1440 X87.598 Y45.542
M204 S1500
M205 X30 Y30
G0 F3150 X88.098 Y46.042
M204 S1000
M205 X10 Y10
;TYPE:WALL-OUTER
G1 F1200 X68.598 Y46.042 E64.06067
G1 X68.598 Y26.542 E64.85517
G1 X88.098 Y26.542 E65.64967
G1 X88.098 Y45.402 E66.4181
G0 F960 X88.098 Y46.042
M204 S1500
M205 X30 Y30
G0 F3150 X87.848 Y46.042
G0 X87.528 Y45.472
G0 X86.608 Y44.552
M204 S1000
M205 X10 Y10
;TYPE:SKIN
G1 F1200 X70.088 Y44.552 E67.09118
G1 X70.088 Y28.032 E67.76427
G1 X86.608 Y28.032 E68.43735
G1 X86.608 Y43.912 E69.08436
G0 F960 X86.608 Y44.552
M204 S1500
M205 X30 Y30
G0 F3150 X86.382 Y43.725
M204 S1000
M205 X10 Y10
G1 F1200 X85.78 Y44.327 E69.11905
M204 S1500
M205 X30 Y30
G0 F3150 X85.073 Y44.327
M204 S1000
M205 X10 Y10
G1 F1200 X86.382 Y43.018 E69.19447
M204 S1500
M205 X30 Y30
G0 F3150 X86.382 Y42.311
M204 S1000
M205 X10 Y10
G1 F1200 X84.366 Y44.327 E69.31064
M204 S1500
M205 X30 Y30
G0 F3150 X83.659 Y44.327
M204 S1000
M205 X10 Y10
G1 F1200 X86.382 Y41.604 E69.46754
M204 S1500
M205 X30 Y30
G0 F3150 X86.382 Y40.896
M204 S1000
M205 X10 Y10
G1 F1200 X82.952 Y44.327 E69.6652
M204 S1500
M205 X30 Y30
G0 F3150 X82.245 Y44.327
M204 S1000
M205 X10 Y10
G1 F1200 X86.382 Y40.189 E69.90361
M204 S1500
M205 X30 Y30
G0 F3150 X86.382 Y39.482
M204 S1000
M205 X10 Y10
G1 F1200 X81.537 Y44.327 E70.18278
M204 S1500
M205 X30 Y30
G0 F3150 X80.83 Y44.327
M204 S1000
M205 X10 Y10
G1 F1200 X86.382 Y38.775 E70.50268
M204 S1500
M205 X30 Y30
G0 F3150 X86.382 Y38.068
M204 S1000
M205 X10 Y10
G1 F1200 X80.123 Y44.327 E70.86333
M204 S1500
M205 X30 Y30
G0 F3150 X79.416 Y44.327
M204 S1000
M205 X10 Y10
G1 F1200 X86.382 Y37.361 E71.26471
M204 S1500
M205 X30 Y30
G0 F3150 X86.382 Y36.654
M204 S1000
M205 X10 Y10
G1 F1200 X78.709 Y44.327 E71.70683
M204 S1500
M205 X30 Y30
G0 F3150 X78.002 Y44.327
M204 S1000
M205 X10 Y10
G1 F1200 X86.382 Y35.947 E72.18969
M204 S1500
M205 X30 Y30
G0 F3150 X86.382 Y35.24
M204 S1000
M205 X10 Y10
G1 F1200 X77.295 Y44.327 E72.71329
M204 S1500
M205 X30 Y30
G0 F3150 X76.588 Y44.327
M204 S1000
M205 X10 Y10
G1 F1200 X86.382 Y34.532 E73.27765
M204 S1500
M205 X30 Y30
G0 F3150 X86.382 Y33.825
M204 S1000
M205 X10 Y10
G1 F1200 X75.881 Y44.327 E73.88275
M204 S1500
M205 X30 Y30
G0 F3150 X75.173 Y44.327
M204 S1000
M205 X10 Y10
G1 F1200 X86.382 Y33.118 E74.52861
M204 S1500
M205 X30 Y30
G0 F3150 X86.382 Y32.411
M204 S1000
M205 X10 Y10
G1 F1200 X74.466 Y44.327 E75.21521
M204 S1500
M205 X30 Y30
G0 F3150 X73.759 Y44.327
M204 S1000
M205 X10 Y10
G1 F1200 X86.382 Y31.704 E75.94255
M204 S1500
M205 X30 Y30
G0 F3150 X86.382 Y30.997
M204 S1000
M205 X10 Y10
G1 F1200 X73.052 Y44.327 E76.71063
M204 S1500
M205 X30 Y30
G0 F3150 X72.345 Y44.327
M204 S1000
M205 X10 Y10
G1 F1200 X86.382 Y30.29 E77.51945
M204 S1500
M205 X30 Y30
G0 F3150 X86.382 Y29.583
M204 S1000
M205 X10 Y10
G1 F1200 X71.638 Y44.327 E78.369
M204 S1500
M205 X30 Y30
G0 F3150 X70.931 Y44.327
M204 S1000
M205 X10 Y10
G1 F1200 X86.382 Y28.876 E79.25929
M204 S1500
M205 X30 Y30
G0 F3150 X86.294 Y28.256
M204 S1000
M205 X10 Y10
G1 F1200 X70.312 Y44.238 E80.18018
M204 S1500
M205 X30 Y30
G0 F3150 X70.312 Y43.531
M204 S1000
M205 X10 Y10
G1 F1200 X85.587 Y28.256 E81.06033
M204 S1500
M205 X30 Y30
G0 F3150 X84.88 Y28.256
M204 S1000
M205 X10 Y10
G1 F1200 X70.312 Y42.824 E81.89974
M204 S1500
M205 X30 Y30
G0 F3150 X70.312 Y42.117
M204 S1000
M205 X10 Y10
G1 F1200 X84.173 Y28.256 E82.69841
M204 S1500
M205 X30 Y30
G0 F3150 X83.466 Y28.256
M204 S1000
M205 X10 Y10
G1 F1200 X70.312 Y41.41 E83.45635
M204 S1500
M205 X30 Y30
G0 F3150 X70.312 Y40.703
M204 S1000
M205 X10 Y10
G1 F1200 X82.759 Y28.256 E84.17355
M204 S1500
M205 X30 Y30
G0 F3150 X82.051 Y28.256
M204 S1000
M205 X10 Y10
G1 F1200 X70.312 Y39.996 E84.84998
M204 S1500
M205 X30 Y30
G0 F3150 X70.312 Y39.288
M204 S1000
M205 X10 Y10
G1 F1200 X81.344 Y28.256 E85.48565
M204 S1500
M205 X30 Y30
G0 F3150 X80.637 Y28.256
M204 S1000
M205 X10 Y10
G1 F1200 X70.312 Y38.581 E86.08058
M204 S1500
M205 X30 Y30
G0 F3150 X70.312 Y37.874
M204 S1000
M205 X10 Y10
G1 F1200 X79.93 Y28.256 E86.63477
M204 S1500
M205 X30 Y30
G0 F3150 X79.223 Y28.256
M204 S1000
M205 X10 Y10
G1 F1200 X70.312 Y37.167 E87.14822
M204 S1500
M205 X30 Y30
G0 F3150 X70.312 Y36.46
M204 S1000
M205 X10 Y10
G1 F1200 X78.516 Y28.256 E87.62094
M204 S1500
M205 X30 Y30
G0 F3150 X77.809 Y28.256
M204 S1000
M205 X10 Y10
G1 F1200 X70.312 Y35.753 E88.05292
M204 S1500
M205 X30 Y30
G0 F3150 X70.312 Y35.046
M204 S1000
M205 X10 Y10
G1 F1200 X77.102 Y28.256 E88.44416
M204 S1500
M205 X30 Y30
G0 F3150 X76.395 Y28.256
M204 S1000
M205 X10 Y10
G1 F1200 X70.312 Y34.339 E88.79466
M204 S1500
M205 X30 Y30
G0 F3150 X70.312 Y33.632
M204 S1000
M205 X10 Y10
G1 F1200 X75.688 Y28.256 E89.10443
M204 S1500
M205 X30 Y30
G0 F3150 X74.98 Y28.256
M204 S1000
M205 X10 Y10
G1 F1200 X70.312 Y32.925 E89.37343
M204 S1500
M205 X30 Y30
G0 F3150 X70.312 Y32.217
M204 S1000
M205 X10 Y10
G1 F1200 X74.273 Y28.256 E89.60166
M204 S1500
M205 X30 Y30
G0 F3150 X73.566 Y28.256
M204 S1000
M205 X10 Y10
G1 F1200 X70.312 Y31.51 E89.78916
M204 S1500
M205 X30 Y30
G0 F3150 X70.312 Y30.803
M204 S1000
M205 X10 Y10
G1 F1200 X72.859 Y28.256 E89.93592
M204 S1500
M205 X30 Y30
G0 F3150 X72.152 Y28.256
M204 S1000
M205 X10 Y10
G1 F1200 X70.312 Y30.096 E90.04194
M204 S1500
M205 X30 Y30
G0 F3150 X70.312 Y29.389
M204 S1000
M205 X10 Y10
G1 F1200 X71.445 Y28.256 E90.10722
M204 S1500
M205 X30 Y30
G0 F3150 X70.738 Y28.256
M204 S1000
M205 X10 Y10
G1 F1200 X70.312 Y28.682 E90.13177
M204 S1500
M205 X30 Y30
;MESH:NONMESH
G0 F600 X70.312 Y28.682 Z0.65
G0 F3150 X69.797 Y27.741
;TIME_ELAPSED:102.392252
;LAYER:2
M106 S255
M204 S1000
M205 X10 Y10
;TYPE:FILL
;MESH:2020.stl
G1 F2400 X86.897 Y44.841 E91.11708
G1 X87.109 Y45.053
M204 S2000
M205 X30 Y30
G0 F4200 X79.826 Y44.841
M204 S1000
M205 X10 Y10
